assets/Man walking/Light/Flat/man_walking_flat_light.svg

<svg width="32" height="32" viewBox="0 0 32 32" fill="none" xmlns="http://www.w3.org/2000/svg">
<path d="M14.4199 12.88L15.3699 12.95C16.8899 13 17.8999 13.81 18.1199 15.27L19.3799 20.57C19.3999 20.67 19.4499 20.76 19.5099 20.84L23.5399 26.29L22.1699 27.16L18.0399 23.09C17.3199 22.4 16.7099 21.83 16.4599 21.28L15.2799 16.99L14.4199 12.88Z" fill="#636363"/>
<path d="M13.6 16.2L12.33 20.1C12.1 20.75 11.97 21.46 11.86 22.45L11.3 27.6399L12.59 28.7999L14.62 21.9899L17.79 18.3899C18.31 17.7899 18.5 16.99 18.36 16.21L16.0275 15.7175L13.6 16.21V16.2Z" fill="#9B9B9B"/>
<path d="M24.25 26.8499L23.28 25.9399L21.69 26.6699L21.03 29.7199C20.98 30.0599 21.4 30.2599 21.64 30.0099L24.26 27.1999C24.35 27.0999 24.35 26.9399 24.25 26.8499Z" fill="#533566"/>
<path d="M12.1899 29.9699L12.6199 28.7099L11.3099 27.5599L8.25991 28.2099C7.91991 28.2999 7.90991 28.7699 8.23991 28.8799L11.8799 30.1199C12.0099 30.1699 12.1499 30.0999 12.1899 29.9699Z" fill="#533566"/>
<path d="M20.2425 16.6535C20.2117 16.561 20.1844 16.4663 20.1584 16.3766C20.1349 16.2952 20.1126 16.2179 20.09 16.15C18.8246 12.4777 16.2197 10.9143 15.9522 10.7537C15.9385 10.7455 15.93 10.74 15.93 10.74C15.47 10.49 15.29 9.93 15.53 9.47C15.77 9.01 16.34 8.83 16.79 9.07C16.93 9.14 20.28 10.93 21.86 15.53C21.8792 15.5853 21.899 15.6396 21.9184 15.6927C21.9621 15.8125 22.0035 15.9259 22.03 16.0303L22.3299 16.78C22.3321 16.786 22.3343 16.7921 22.3366 16.7983C22.4184 17.0232 22.5688 17.4362 22.5299 17.66C22.4799 17.93 22.0299 18.23 21.6499 18.35C21.6499 18.35 21.1699 18.5 20.7599 18.4C20.4499 18.33 20.4999 17.97 20.4999 17.97C20.4999 17.97 20.3899 17.88 20.1099 17.68C19.7465 17.4157 20.1063 16.8443 20.2425 16.6535Z" fill="#FFD7C2"/>
<path d="M15.042 10.9365C15.0942 10.4271 14.7238 9.96988 14.2144 9.91768C13.7069 9.86566 13.253 10.2335 13.1982 10.7401L13.1966 10.752C13.1947 10.7658 13.1911 10.7909 13.185 10.8265C13.1727 10.8976 13.1507 11.0102 13.1135 11.1572C13.039 11.4514 12.904 11.8814 12.6659 12.3918C12.2085 13.3724 11.3665 14.6581 9.82108 15.8537C9.61457 15.8006 8.92854 15.6608 8.80989 16.11C8.71989 16.44 8.67989 16.57 8.67989 16.57C8.67989 16.57 8.32989 16.65 8.37989 16.97C8.43989 17.38 8.74989 17.77 8.74989 17.77C8.99989 18.08 9.43989 18.38 9.69989 18.33C9.90208 18.286 10.1816 18.0489 10.3685 17.8903C10.3941 17.8685 10.4182 17.8481 10.4399 17.83L11.0102 17.278C12.7821 15.8923 13.7849 14.3793 14.3464 13.1757C14.6395 12.5473 14.8115 12.0055 14.911 11.6125C14.9608 11.4159 14.9926 11.2561 15.0125 11.1407C15.0224 11.083 15.0293 11.0363 15.034 11.0017C15.0364 10.9843 15.0382 10.97 15.0395 10.9588L15.0412 10.9443L15.0418 10.9388L15.042 10.9365Z" fill="#FFD7C2"/>
<path d="M15.8899 6.78003L16.2099 8.75003L14.1899 9.10003L13.8799 7.09003L15.8899 6.78003Z" fill="#F4C6AD"/>
<path d="M14.25 13.63C14.86 12.47 15.16 11.42 15.3 10.66C15.42 10.03 14.94 9.44003 14.3 9.41003H14.26C13.78 9.41003 13.52 9.65003 13.43 10.13C13.38 10.41 13.15 10.89 13.02 11.29C12.87 11.76 12.67 12.22 12.43 12.67C12.39 12.75 12.42 12.84 12.5 12.88L14.04 13.69C14.12 13.74 14.21 13.71 14.25 13.63Z" fill="#0092E7"/>
<path d="M15.32 8.63002C14.14 8.92002 13.43 9.33002 13.12 11.02C12.75 13.04 13.59 16.21 13.59 16.21H18.36L17.76 10.57C17.63 9.37002 16.63 8.31002 15.32 8.63002Z" fill="#00A6ED"/>
<path d="M19.35 11.09C18.45 10.1 17.56 9.46 16.88 9.06C16.32 8.72 15.59 8.97 15.34 9.57L15.32 9.61C15.17 10.08 15.36 10.59 15.79 10.84C16.05 10.99 16.36 11.19 16.69 11.46C17.09 11.77 17.46 12.12 17.8 12.5C17.86 12.57 17.96 12.57 18.03 12.51L19.34 11.32C19.41 11.26 19.41 11.16 19.35 11.09Z" fill="#3BC6F6"/>
<path d="M14.7702 3.16003L13.6602 3.14003C12.7102 3.12003 11.9302 3.88003 11.9102 4.82003V5.30003C11.9102 5.45003 11.8702 5.60003 11.7902 5.73003C11.5502 6.11003 11.4402 6.15003 11.4302 6.34003C11.4102 6.64003 11.6902 6.72003 11.8202 6.74003C11.8602 6.75003 11.8902 6.78003 11.8902 6.82003C11.9002 7.88003 12.0802 8.64003 13.3502 8.66003C14.1202 8.67003 15.3502 8.31003 15.7202 7.40003L16.0702 6.18003L16.4702 4.90003C16.4702 3.96003 15.7102 3.18003 14.7702 3.16003Z" fill="#FFD7C2"/>
<path d="M12.3302 5.80996C12.2702 5.80996 12.2102 5.74996 12.2102 5.66996V5.65996C12.2202 5.34996 12.4902 5.16996 12.7502 5.17996C13.0102 5.17996 13.2802 5.36996 13.2702 5.67996V5.68996C13.2702 5.76996 13.2102 5.82996 13.1502 5.82996L12.3302 5.80996Z" fill="white"/>
<path d="M12.2302 5.82001C12.2202 5.77001 12.2102 5.72001 12.2102 5.67001C12.2102 5.44001 12.3602 5.26001 12.5402 5.26001C12.7202 5.26001 12.8602 5.45001 12.8602 5.68001C12.8602 5.73001 12.8502 5.78001 12.8402 5.83001L12.2302 5.82001Z" fill="#7D4533"/>
<path d="M12.3374 5.81994C12.3074 5.76994 12.2974 5.71994 12.2974 5.66994C12.2974 5.53994 12.3874 5.43994 12.4874 5.43994C12.5874 5.43994 12.6674 5.54994 12.6674 5.67994C12.6674 5.73994 12.6489 5.77994 12.6289 5.81994H12.3374Z" fill="black"/>
<path d="M12.4541 5.5216C12.4664 5.47916 12.4462 5.43604 12.4091 5.4253C12.3719 5.41455 12.3319 5.44024 12.3196 5.48268C12.3073 5.52513 12.3275 5.56824 12.3646 5.57899C12.4017 5.58974 12.4418 5.56405 12.4541 5.5216Z" fill="white"/>
<path d="M12.9576 6.82177C13.0175 6.84247 13.0492 6.90774 13.0285 6.96755C12.9176 7.28766 12.5622 7.45895 12.2427 7.34836C12.1829 7.32765 12.1512 7.26238 12.1719 7.20257C12.1926 7.14276 12.2578 7.11106 12.3176 7.13177C12.5181 7.20117 12.7427 7.09246 12.8119 6.89257C12.8326 6.83276 12.8978 6.80106 12.9576 6.82177Z" fill="#990838"/>
<path d="M13.2085 5.14211C13.1594 5.14262 13.1116 5.126 13.0735 5.09511C12.9045 4.97651 12.6973 4.92517 12.4925 4.95111C12.4352 4.95704 12.3778 4.94025 12.3328 4.90435C12.2877 4.86844 12.2585 4.81629 12.2515 4.75911C12.2481 4.73066 12.2505 4.70183 12.2583 4.67428C12.2662 4.64674 12.2794 4.62102 12.2973 4.59861C12.3151 4.57621 12.3372 4.55756 12.3623 4.54374C12.3874 4.52992 12.415 4.52121 12.4435 4.51811C12.7625 4.48217 13.0835 4.56669 13.3435 4.75511C13.3788 4.78311 13.4045 4.8214 13.417 4.86467C13.4296 4.90794 13.4283 4.95404 13.4135 4.99658C13.3987 5.03912 13.371 5.07598 13.3342 5.10206C13.2975 5.12814 13.2535 5.14213 13.2085 5.14211V5.14211Z" fill="#212121"/>
<path d="M16.1701 2.43995C16.8701 2.60995 17.2301 3.24995 17.2301 3.91995C17.2301 3.91995 17.2301 4.45995 17.1401 4.91995C17.0901 5.17995 17.0301 5.44995 16.9701 5.66995C16.9101 5.91995 16.7701 6.25995 16.6201 6.46995C16.4801 6.65995 16.1801 6.83995 15.9001 6.86995C15.6541 6.8954 15.2497 6.72652 15.145 6.41828C15.3085 6.30214 15.4166 6.11659 15.4301 5.89495C15.4543 5.58795 15.2697 5.3136 14.9975 5.20369C14.9539 5.17851 14.904 5.16278 14.8501 5.15995L14.7401 5.14995C14.5201 5.12995 14.3601 4.94995 14.3801 4.72995C14.4001 4.45995 14.2001 4.22995 13.9301 4.22995L12.0901 4.10995C12.0801 4.09995 12.0601 4.09995 12.0501 4.09995C11.6601 4.02995 11.3601 3.67995 11.3701 3.27995C11.3801 2.80995 11.7701 2.44995 12.2301 2.47995C12.3701 2.48995 12.5001 2.41995 12.5801 2.31995C12.7501 2.10995 13.0101 1.97995 13.3001 1.99995C13.4201 2.00995 13.5301 2.03995 13.6301 2.08995C13.9001 2.21995 14.2101 2.23995 14.4901 2.13995C14.6001 2.10995 14.7101 2.08995 14.8301 2.09995C14.9801 2.10995 15.1201 2.14995 15.2401 2.22995C15.4101 2.32995 15.6101 2.38995 15.8101 2.38995C15.9301 2.38995 16.0401 2.40995 16.1701 2.43995Z" fill="#212121"/>
</svg>

<svg xmlns="http://www.w3.org/2000/svg" width="32" height="32" fill="none"><path fill="#636363" d="m14.42 12.88.95.07c1.52.05 2.53.86 2.75 2.32l1.26 5.3c.02.1.07.19.13.27l4.03 5.45-1.37.87-4.13-4.07c-.72-.69-1.33-1.26-1.58-1.81l-1.18-4.29-.86-4.11Z"/><path fill="#9B9B9B" d="m13.6 16.2-1.27 3.9c-.23.65-.36 1.36-.47 2.35l-.56 5.19 1.29 1.16 2.03-6.81 3.17-3.6c.52-.6.71-1.4.57-2.18l-2.332-.493-2.428.493v-.01Z"/><path fill="#533566" d="m24.25 26.85-.97-.91-1.59.73-.66 3.05c-.05.34.37.54.61.29l2.62-2.81c.09-.1.09-.26-.01-.35ZM12.19 29.97l.43-1.26-1.31-1.15-3.05.65c-.34.09-.35.56-.02.67l3.64 1.24c.13.05.27-.02.31-.15Z"/><path fill="#FFD7C2" d="M20.242 16.654c-.03-.093-.058-.188-.084-.277-.023-.082-.045-.16-.068-.227-1.265-3.672-3.87-5.236-4.138-5.396a.946.946 0 0 1-.422-1.284c.24-.46.81-.64 1.26-.4.14.07 3.49 1.86 5.07 6.46l.058.163c.044.12.085.233.112.337l.3.75.007.018c.081.225.232.638.193.862-.05.27-.5.57-.88.69 0 0-.48.15-.89.05-.31-.07-.26-.43-.26-.43s-.11-.09-.39-.29c-.363-.264-.004-.836.133-1.026ZM15.042 10.937a.927.927 0 0 0-1.844-.196l-.001.011a4.457 4.457 0 0 1-.083.405c-.075.294-.21.724-.448 1.235-.457.98-1.3 2.266-2.845 3.462-.206-.053-.892-.193-1.011.256-.09.33-.13.46-.13.46s-.35.08-.3.4c.06.41.37.8.37.8.25.31.69.61.95.56.202-.044.482-.281.668-.44l.072-.06.57-.552c1.772-1.386 2.775-2.899 3.336-4.102.293-.629.466-1.17.565-1.563a6.277 6.277 0 0 0 .129-.654l.001-.015v-.005l.001-.002Z"/><path fill="#F4C6AD" d="m15.89 6.78.32 1.97-2.02.35-.31-2.01 2.01-.31Z"/><path fill="#0092E7" d="M14.25 13.63c.61-1.16.91-2.21 1.05-2.97.12-.63-.36-1.22-1-1.25h-.04c-.48 0-.74.24-.83.72-.05.28-.28.76-.41 1.16-.15.47-.35.93-.59 1.38-.04.08-.01.17.07.21l1.54.81c.08.05.17.02.21-.06Z"/><path fill="#00A6ED" d="M15.32 8.63c-1.18.29-1.89.7-2.2 2.39-.37 2.02.47 5.19.47 5.19h4.77l-.6-5.64c-.13-1.2-1.13-2.26-2.44-1.94Z"/><path fill="#3BC6F6" d="M19.35 11.09c-.9-.99-1.79-1.63-2.47-2.03-.56-.34-1.29-.09-1.54.51l-.02.04c-.15.47.04.98.47 1.23.26.15.57.35.9.62.4.31.77.66 1.11 1.04.06.07.16.07.23.01l1.31-1.19c.07-.06.07-.16.01-.23Z"/><path fill="#FFD7C2" d="m14.77 3.16-1.11-.02c-.95-.02-1.73.74-1.75 1.68v.48c0 .15-.04.3-.12.43-.24.38-.35.42-.36.61-.02.3.26.38.39.4.04.01.07.04.07.08.01 1.06.19 1.82 1.46 1.84.77.01 2-.35 2.37-1.26l.35-1.22.4-1.28c0-.94-.76-1.72-1.7-1.74Z"/><path fill="#fff" d="M12.33 5.81c-.06 0-.12-.06-.12-.14v-.01c.01-.31.28-.49.54-.48.26 0 .53.19.52.5v.01c0 .08-.06.14-.12.14l-.82-.02Z"/><path fill="#7D4533" d="M12.23 5.82a.772.772 0 0 1-.02-.15c0-.23.15-.41.33-.41.18 0 .32.19.32.42 0 .05-.01.1-.02.15l-.61-.01Z"/><path fill="#000" d="M12.337 5.82a.282.282 0 0 1-.04-.15c0-.13.09-.23.19-.23s.18.11.18.24c0 .06-.018.1-.038.14h-.292Z"/><path fill="#fff" d="M12.454 5.522c.012-.043-.008-.086-.045-.097-.037-.01-.077.015-.09.058-.012.042.008.085.046.096.037.01.077-.015.09-.057Z"/><path fill="#990838" d="M12.958 6.822c.06.02.091.086.07.146a.62.62 0 0 1-.785.38.115.115 0 0 1 .075-.216c.2.07.425-.04.494-.24a.115.115 0 0 1 .146-.07Z"/><path fill="#212121" d="M13.209 5.142a.211.211 0 0 1-.136-.047.83.83 0 0 0-.58-.144.22.22 0 0 1-.235-.277.217.217 0 0 1 .186-.156c.318-.036.64.049.9.237a.217.217 0 0 1-.135.387Z"/><path fill="#212121" d="M16.17 2.44c.7.17 1.06.81 1.06 1.48 0 0 0 .54-.09 1-.05.26-.11.53-.17.75-.06.25-.2.59-.35.8-.14.19-.44.37-.72.4-.246.025-.65-.143-.755-.452a.684.684 0 0 0 .285-.523.69.69 0 0 0-.432-.691.328.328 0 0 0-.148-.044l-.11-.01a.385.385 0 0 1-.36-.42c.02-.27-.18-.5-.45-.5l-1.84-.12c-.01-.01-.03-.01-.04-.01a.827.827 0 0 1-.68-.82c.01-.47.4-.83.86-.8.14.01.27-.06.35-.16a.848.848 0 0 1 1.05-.23c.27.13.58.15.86.05.11-.03.22-.05.34-.04.15.01.29.05.41.13.17.1.37.16.57.16.12 0 .23.02.36.05Z"/></svg>
